dist/images/svg/zip.svg

<?xml version="1.0" encoding="UTF-8"?>
<svg width="38px" height="48px" viewBox="0 0 38 48" version="1.1" xmlns="http://www.w3.org/2000/svg" xmlns:xlink="http://www.w3.org/1999/xlink">
    <!-- Generator: Sketch 49.1 (51147) - http://www.bohemiancoding.com/sketch -->
    <title>File type / ZIP</title>
    <desc>Created with Sketch.</desc>
    <defs>
        <path d="M36,38 L36,13 L25,13 L25,2 L2,2 L2,46 L16,46 L16,48 L27,48 L0,48 L0,0 L27.006897,0 L38,11.0142212 L38,48 L27,48 L38,48 L38,38 L36,38 Z M27.006897,3.0189209 L27.006897,11.0142212 L35.0204468,11.0142212 L27.006897,3.0189209 Z M7.90909091,14 L16.0909091,14 C16.5927273,14 17,13.553 17,13 C17,12.447 16.5927273,12 16.0909091,12 L7.90909091,12 C7.40727273,12 7,12.447 7,13 C7,13.553 7.40727273,14 7.90909091,14 Z M7.90909091,20 L29.0909091,20 C29.5927273,20 30,19.553 30,19 C30,18.447 29.5927273,18 29.0909091,18 L7.90909091,18 C7.40727273,18 7,18.447 7,19 C7,19.553 7.40727273,20 7.90909091,20 Z M7.90909091,26 L29.0909091,26 C29.5927273,26 30,25.553 30,25 C30,24.447 29.5927273,24 29.0909091,24 L7.90909091,24 C7.40727273,24 7,24.447 7,25 C7,25.553 7.40727273,26 7.90909091,26 Z M7.90909091,32 L29.0909091,32 C29.5927273,32 30,31.553 30,31 C30,30.447 29.5927273,30 29.0909091,30 L7.90909091,30 C7.40727273,30 7,30.447 7,31 C7,31.553 7.40727273,32 7.90909091,32 Z M20,46.677 L23.894,41.111 L20.11,41.111 L20.11,40 L25.324,40 L25.324,41.012 L21.43,46.578 L25.324,46.578 L25.324,47.7 L20,47.7 L20,46.677 Z M27.787,40 L29.107,40 L29.107,47.7 L27.787,47.7 L27.787,40 Z M32.109,40 L34.815,40 C35.7903382,40 36.5218309,40.2254977 37.0095,40.6765 C37.4971691,41.1275023 37.741,41.7379962 37.741,42.508 C37.741,43.2853372 37.4971691,43.8994977 37.0095,44.3505 C36.5218309,44.8015023 35.7903382,45.027 34.815,45.027 L33.418,45.027 L33.418,47.7 L32.109,47.7 L32.109,40 Z M34.815,43.916 C35.3796695,43.916 35.7884987,43.7968345 36.0415,43.5585 C36.2945013,43.3201655 36.421,42.9700023 36.421,42.508 C36.421,42.0533311 36.2945013,41.7068345 36.0415,41.4685 C35.7884987,41.2301655 35.3796695,41.111 34.815,41.111 L33.418,41.111 L33.418,43.916 L34.815,43.916 Z" id="path-1"></path>
    </defs>
    <g id="Symbols" stroke="none" stroke-width="1" fill="none" fill-rule="evenodd">
        <g id="File-type-/-ZIP">
            <mask id="mask-2" fill="white">
                <use xlink:href="#path-1"></use>
            </mask>
            <use id="Shape" fill="#1B39BA" fill-rule="nonzero" xlink:href="#path-1"></use>
            <rect id="Rectangle-2" fill="#793193" mask="url(#mask-2)" x="16" y="38" width="22" height="10"></rect>
        </g>
    </g>
</svg>

<svg width="38" height="48" xmlns="http://www.w3.org/2000/svg" xmlns:xlink="http://www.w3.org/1999/xlink"><defs><path d="M36 38V13H25V2H2v44h14v2h11H0V0h27.007L38 11.014V48H27h11V38h-2zM27.007 3.019v7.995h8.013L27.007 3.02zM7.909 14h8.182c.502 0 .909-.447.909-1 0-.553-.407-1-.91-1H7.91c-.503 0-.91.447-.91 1 0 .553.407 1 .91 1zm0 6h21.182c.502 0 .909-.447.909-1 0-.553-.407-1-.91-1H7.91c-.503 0-.91.447-.91 1 0 .553.407 1 .91 1zm0 6h21.182c.502 0 .909-.447.909-1 0-.553-.407-1-.91-1H7.91c-.503 0-.91.447-.91 1 0 .553.407 1 .91 1zm0 6h21.182c.502 0 .909-.447.909-1 0-.553-.407-1-.91-1H7.91c-.503 0-.91.447-.91 1 0 .553.407 1 .91 1zM20 46.677l3.894-5.566H20.11V40h5.214v1.012l-3.894 5.566h3.894V47.7H20v-1.023zM27.787 40h1.32v7.7h-1.32V40zm4.322 0h2.706c.975 0 1.707.225 2.195.676.487.452.731 1.062.731 1.832 0 .777-.244 1.391-.731 1.842-.488.452-1.22.677-2.195.677h-1.397V47.7h-1.309V40zm2.706 3.916c.565 0 .973-.12 1.227-.357.253-.239.379-.589.379-1.051 0-.455-.126-.801-.38-1.04-.253-.238-.661-.357-1.226-.357h-1.397v2.805h1.397z" id="a"/></defs><g fill="none" fill-rule="evenodd"><mask id="b" fill="#fff"><use xlink:href="#a"/></mask><use fill="#1B39BA" fill-rule="nonzero" xlink:href="#a"/><path fill="#793193" mask="url(#b)" d="M16 38h22v10H16z"/></g></svg>
